elide/concept/src/learn2.svg

<svg clip-rule="evenodd" fill-rule="evenodd" stroke-linejoin="round" stroke-miterlimit="2" viewBox="0 0 100 100" xmlns="http://www.w3.org/2000/svg"><path d="m0 0h100v100h-100z" fill="none"/><g fill="#01b7ff"><path d="m467.481 31.69h-35.682v19.781c0 1.619 1.065 2.931 2.379 2.931h30.924c1.314 0 2.379-1.312 2.379-2.931z" transform="matrix(1.2010840816 0 0 .97491699552 -490.055445696 10.28000690432)"/><path d="m467.481 43.046c0-6.272-.913-11.356-2.039-11.356h-31.604c-1.126 0-2.039 5.084-2.039 11.356 0 6.271.913 11.356 2.039 11.356h31.604c1.126 0 2.039-5.085 2.039-11.356z" transform="matrix(1.40126595232 0 0 .25159159792 -580.065146048 24.6306170816)"/><path d="m467.481 37.368c0-3.136-.946-5.678-2.113-5.678h-29.344c-2.333 0-4.225 5.084-4.225 11.356 0 6.271 1.892 11.356 4.225 11.356h29.344c1.167 0 2.113-2.542 2.113-5.678z" transform="matrix(.51806005306 -.43470379638 .16171975206 .19273058522 -197.460349344 251.965680736)"/><path d="m467.481 37.368c0-3.136-.946-5.678-2.113-5.678h-29.344c-2.333 0-4.225 5.084-4.225 11.356 0 6.271 1.892 11.356 4.225 11.356h29.344c1.167 0 2.113-2.542 2.113-5.678z" transform="matrix(-.51806005306 -.43470379638 -.16171975206 .19273058522 297.458719456 251.965680736)"/><path d="m467.481 37.368c0-3.136-7.988-5.678-17.841-5.678s-17.841 2.542-17.841 5.678v14.195c0 1.568 3.994 2.839 8.921 2.839h17.84c4.927 0 8.921-1.271 8.921-2.839z" transform="matrix(.16014406803 0 0 .50318319584 -22.0082895168 10.94362273408)"/><path d="m467.481 34.529c0-1.568-3.994-2.839-8.921-2.839h-17.84c-4.927 0-8.921 1.271-8.921 2.839v14.195c0 3.136 7.988 5.678 17.841 5.678s17.841-2.542 17.841-5.678z" transform="matrix(.16014406803 0 0 .50318319584 -22.0082895168 45.4013611328)"/></g></svg>

<?xml version="1.0" encoding="UTF-8" standalone="no"?>
<!DOCTYPE svg PUBLIC "-//W3C//DTD SVG 1.1//EN" "http://www.w3.org/Graphics/SVG/1.1/DTD/svg11.dtd">
<svg width="100%" height="100%" viewBox="0 0 100 100" version="1.1" xmlns="http://www.w3.org/2000/svg" xmlns:xlink="http://www.w3.org/1999/xlink" xml:space="preserve" xmlns:serif="http://www.serif.com/" style="fill-rule:evenodd;clip-rule:evenodd;stroke-linejoin:round;stroke-miterlimit:2;">
    <g transform="matrix(1,0,0,1,-150,0)">
        <rect id="Artboard2" x="150" y="0" width="100" height="100" style="fill:none;"/>
        <g id="Artboard21" serif:id="Artboard2">
            <g transform="matrix(0.714272,0,0,0.714272,57.1105,15.1038)">
                <g transform="matrix(1.68155,0,0,1.36491,-556.043,-6.75344)">
                    <path d="M467.481,31.69L431.799,31.69L431.799,51.471C431.799,53.09 432.864,54.402 434.178,54.402L465.102,54.402C466.416,54.402 467.481,53.09 467.481,51.471L467.481,31.69Z" style="fill:rgb(1,183,255);"/>
                </g>
                <g transform="matrix(1.96181,0,0,0.352235,-682.059,13.3378)">
                    <path d="M467.481,43.046C467.481,36.774 466.568,31.69 465.442,31.69L433.838,31.69C432.712,31.69 431.799,36.774 431.799,43.046C431.799,49.317 432.712,54.402 433.838,54.402L465.442,54.402C466.568,54.402 467.481,49.317 467.481,43.046L467.481,43.046Z" style="fill:rgb(1,183,255);"/>
                </g>
                <g transform="matrix(0.725298,-0.608597,0.226412,0.269828,-146.402,331.613)">
                    <path d="M467.481,37.368C467.481,34.232 466.535,31.69 465.368,31.69L436.024,31.69C433.691,31.69 431.799,36.774 431.799,43.046C431.799,49.317 433.691,54.402 436.024,54.402L465.368,54.402C466.535,54.402 467.481,51.86 467.481,48.724L467.481,37.368Z" style="fill:rgb(1,183,255);"/>
                </g>
                <g transform="matrix(-0.725298,-0.608597,-0.226412,0.269828,546.498,331.613)">
                    <path d="M467.481,37.368C467.481,34.232 466.535,31.69 465.368,31.69L436.024,31.69C433.691,31.69 431.799,36.774 431.799,43.046C431.799,49.317 433.691,54.402 436.024,54.402L465.368,54.402C466.535,54.402 467.481,51.86 467.481,48.724L467.481,37.368Z" style="fill:rgb(1,183,255);"/>
                </g>
                <g transform="matrix(0.224206,0,0,0.70447,99.2356,-5.82436)">
                    <path d="M467.481,37.368C467.481,34.232 459.493,31.69 449.64,31.69C439.787,31.69 431.799,34.232 431.799,37.368L431.799,51.563C431.799,53.131 435.793,54.402 440.72,54.402L458.56,54.402C463.487,54.402 467.481,53.131 467.481,51.563L467.481,37.368Z" style="fill:rgb(1,183,255);"/>
                </g>
                <g transform="matrix(0.224206,0,0,0.70447,99.2356,42.4174)">
                    <path d="M467.481,34.529C467.481,32.961 463.487,31.69 458.56,31.69L440.72,31.69C435.793,31.69 431.799,32.961 431.799,34.529L431.799,48.724C431.799,51.86 439.787,54.402 449.64,54.402C459.493,54.402 467.481,51.86 467.481,48.724L467.481,34.529Z" style="fill:rgb(1,183,255);"/>
                </g>
            </g>
        </g>
    </g>
</svg>
